**kern	**kern	**dynam
*part1	*part1	*part1
*staff2	*staff1	*
*I"Piano	*	*
*clefF4	*clefG2	*
*k[b-e-a-]	*k[b-e-a-]	*
=1	=1	=1
8EE-L	8r	.
8E-	8B-L 8e- 8g	.
8E-	8B- 8e- 8g	.
8E-J	8B-J 8e- 8g	.
=	=	=
8DDL	8r	.
8D	8B-L 8f 8a-	.
8D	8B- 8f 8a-	.
8DJ	8B-J 8f 8a-	.
=	=	=
8EE-L	8r	.
8E-	8e- 8g	.
8GG	8r	.
8GJ	8e- 8b-	f
=	=	=
8AA-L	8r	.
8A-	8e- 8cc	.
8C	8r	.
8cJ	8e- 8a-	.
=	=	=
8BB-L	8r	p
8B-	8e-L 8g	.
8B-	8e- 8g	.
8B-J	8e-J 8g	.
=	=	=
8BB-L	8r	.
8A-	8dL 8f	.
8A-	8d 8f	.
8A-J	8dJ 8f	.
=	=	=
8EE-L	8r	f
8E-	(16gLL	.
.	16ee-JJ)	.
8GG	8r	.
8GJ	(16b-LL	.
.	16ee-JJ)	.
=	=	=
8AA-L	8r	.
8A-	(16ccLL	.
.	16ee-JJ)	.
8C	8r	.
8cJ	(16a-LL	.
.	16ee-JJ)	.
=	=	=
*-	*-	*-
!!!system-decoration: {(s1,s2)}
